; generated by PrusaSlicer 2.4.2+x64 on 2022-07-06 at 12:08:25 UTC

; 

; external perimeters extrusion width = 0.45mm
; perimeters extrusion width = 0.45mm
; infill extrusion width = 0.45mm
; solid infill extrusion width = 0.45mm
; top infill extrusion width = 0.40mm
; support material extrusion width = 0.38mm
; first layer extrusion width = 0.42mm

M107
;TYPE:Custom
G90 ; use absolute coordinates
M83 ; extruder relative mode
M140 S60 ; set final bed temp
M104 S150 ; set temporary nozzle temp to prevent oozing during homing and auto bed leveling
M190 S60 ; wait for bed temp to stabilize
G28 ; home all axis
G29 ; auto bed levelling
G1 Z50 F240
G1 X2 Y10 F3000
M104 S210 ; set final nozzle temp
M109 S210 ; wait for nozzle temp to stabilize
G1 Z0.28 F240
G92 E0
G1 Y140 E10 F1500 ; prime the nozzle
G1 X2.3 F5000
G92 E0
G1 Y10 E10 F1200 ; prime the nozzle
G92 E0
G21 ; set units to millimeters
G90 ; use absolute coordinates
M83 ; use relative distances for extrusion
; Filament gcode
M107
;LAYER_CHANGE
;Z:0.2
;HEIGHT:0.2
;BEFORE_LAYER_CHANGE
G92 E0
;0.2


G1 E-6 F3600
G1 Z.2 F9000
;AFTER_LAYER_CHANGE
;0.2
G1 X129.037 Y136.242
G1 E6 F2400
M204 S500
;TYPE:Skirt/Brim
;WIDTH:0.42
G1 F1200
G1 X130.123 Y135.321 E.04464
G1 X131.366 Y134.649 E.04432
G1 X132.731 Y134.243 E.04464
G1 X134 Y134.123 E.03997
G1 X166.14 Y134.126 E1.00771
G1 X167.552 Y134.302 E.04464
G1 X168.889 Y134.761 E.04432
G1 X169.877 Y135.321 E.03561
G1 X170.963 Y136.242 E.04464
G1 X179.51 Y145.31 E.39074
G1 X179.979 Y146.028 E.02687
G1 X180.456 Y147.058 E.0356
G1 X180.707 Y147.913 E.02791
G1 X180.862 Y148.994 E.03425
G1 X180.862 Y150.851 E.05823
G1 X180.698 Y151.975 E.0356
G1 X180.239 Y153.312 E.04432
G1 X179.51 Y154.534 E.04464
G1 X170.758 Y163.963 E.40336
G1 X169.643 Y164.831 E.04432
G1 X168.634 Y165.351 E.0356
G1 X167.269 Y165.757 E.04464
G1 X166 Y165.877 E.03997
G1 X134 Y165.877 E1.00334
G1 X132.448 Y165.698 E.04899
G1 X131.636 Y165.456 E.02656
G1 X130.605 Y164.979 E.03561
G1 X129.888 Y164.51 E.02687
G1 X129.242 Y163.963 E.02656
G1 X120.848 Y155.131 E.38204
G1 X120.169 Y154.221 E.03561
G1 X119.649 Y153.211 E.0356
G1 X119.37 Y152.4 E.02688
G1 X119.197 Y151.571 E.02656
G1 X119.126 Y150.717 E.02688
G1 X119.138 Y149.149 E.04917
G1 X119.243 Y148.309 E.02656
G1 X119.453 Y147.478 E.02687
G1 X119.761 Y146.688 E.02656
G1 X120.169 Y145.935 E.02688
G1 X120.955 Y144.904 E.04065
G1 X128.996 Y136.285 E.36957
G1 E-4.2 F3600
;WIPE_START
G1 F7200
G1 X130.123 Y135.321 E-.70453
G1 X131.366 Y134.649 E-.67141
G1 X132.041 Y134.448 E-.33406
;WIPE_END
G1 E-.09 F3600
G1 X140.906 Y145.275 F9000
G1 E6 F2400
;TYPE:Support material
G1 F1200
G1 X141.23 Y145.313 E.01021
G1 X141.865 Y145.455 E.0204
G1 X142.174 Y145.558 E.01021
G1 X142.767 Y145.824 E.0204
G1 X143.32 Y146.169 E.0204
G1 X143.577 Y146.368 E.01021
G1 X143.82 Y146.584 E.01021
G1 X144.261 Y147.063 E.0204
G1 X144.633 Y147.597 E.0204
G1 X144.929 Y148.177 E.0204
G1 X145.047 Y148.48 E.01021
G1 X145.145 Y148.791 E.01021
G1 X145.276 Y149.428 E.0204
G1 X145.309 Y149.752 E.01021
G1 X145.309 Y150.403 E.0204
G1 X145.221 Y151.048 E.02041
G1 X145.145 Y151.364 E.01021
G1 X145.047 Y151.675 E.01021
G1 X144.791 Y152.273 E.0204
G1 X144.633 Y152.558 E.01021
G1 X144.261 Y153.092 E.0204
G1 X144.049 Y153.339 E.01021
G1 X143.577 Y153.787 E.0204
G1 X143.049 Y154.168 E.0204
G1 X142.475 Y154.474 E.0204
G1 X142.174 Y154.597 E.01021
G1 X141.55 Y154.781 E.0204
G1 X141.23 Y154.842 E.01021
G1 X140.581 Y154.897 E.0204
G1 X140.256 Y154.891 E.01021
G1 X139.61 Y154.814 E.0204
G1 X139.292 Y154.743 E.01021
G1 X138.674 Y154.538 E.0204
G1 X138.377 Y154.405 E.01021
G1 X138.09 Y154.251 E.01021
G1 X137.55 Y153.889 E.0204
G1 X137.063 Y153.457 E.0204
G1 X136.843 Y153.217 E.01021
G1 X136.453 Y152.696 E.0204
G1 X136.137 Y152.127 E.0204
G1 X136.009 Y151.827 E.01021
G1 X135.814 Y151.207 E.0204
G1 X135.749 Y150.888 E.01021
G1 X135.705 Y150.565 E.01021
G1 X135.683 Y149.915 E.0204
G1 X135.749 Y149.267 E.0204
G1 X135.814 Y148.948 E.01021
G1 X136.009 Y148.327 E.0204
G1 X136.137 Y148.028 E.01021
G1 X136.286 Y147.738 E.01021
G1 X136.639 Y147.192 E.0204
G1 X137.063 Y146.698 E.0204
G1 X137.299 Y146.474 E.01021
G1 X137.55 Y146.266 E.01021
G1 X138.09 Y145.903 E.0204
G1 X138.377 Y145.75 E.01021
G1 X138.98 Y145.504 E.0204
G1 X139.61 Y145.341 E.0204
G1 X139.931 Y145.291 E.01021
G1 X140.256 Y145.264 E.01021
G1 X140.85 Y145.272 E.01863
G1 X144.972 Y151.347 F9000
G1 F1200
G1 X144.972 Y149.848 E.047
G1 X144.939 Y149.474 E.01177
G1 X144.817 Y148.881 E.01897
G1 X144.727 Y148.593 E.00949
G1 X144.553 Y148.175 E.01418
G1 X144.553 Y151.98 E.11929
G1 X144.341 Y152.383 E.01428
G1 X144.134 Y152.694 E.01172
G1 X144.134 Y147.461 E.16408
G1 X143.996 Y147.276 E.00725
G1 X143.715 Y146.961 E.01321
G1 X143.715 Y153.194 E.19541
G1 X143.296 Y153.575 E.01777
G1 X143.296 Y146.58 E.21933
G1 X142.877 Y146.281 E.01614
G1 X142.877 Y153.874 E.2381
G1 X142.458 Y154.104 E.01498
G1 X142.458 Y146.051 E.2525
G1 X142.039 Y145.871 E.0143
G1 X142.039 Y154.284 E.2638
G1 X141.62 Y154.413 E.01374
G1 X141.62 Y145.742 E.27185
G1 X141.201 Y145.653 E.01343
G1 X141.201 Y154.502 E.27743
G1 X140.783 Y154.547 E.01321
G1 X140.783 Y145.608 E.28025
G1 X140.364 Y145.602 E.01314
G1 X140.364 Y154.553 E.28068
G1 X139.945 Y154.522 E.01317
G1 X139.945 Y145.633 E.27873
G1 X139.526 Y145.707 E.01334
G1 X139.526 Y154.448 E.27406
G1 X139.107 Y154.335 E.01361
G1 X139.107 Y145.82 E.26697
G1 X138.688 Y145.983 E.01409
G1 X138.688 Y154.172 E.25676
G1 X138.269 Y153.962 E.01469
G1 X138.269 Y146.193 E.2436
G1 X137.85 Y146.468 E.01572
G1 X137.85 Y153.687 E.22633
G1 X137.431 Y153.338 E.0171
G1 X137.431 Y146.817 E.20445
G1 X137.012 Y147.27 E.01934
G1 X137.012 Y152.885 E.17605
G1 X136.738 Y152.511 E.01452
G1 X136.593 Y152.268 E.00888
G1 X136.593 Y147.886 E.1374
G1 X136.325 Y148.451 E.01958
G1 X136.174 Y148.922 E.01552
G1 X136.174 Y151.781 E.08964
G1 X134.965 Y152.349 F9000
;TYPE:Perimeter
G1 F1200
G1 X134.787 Y151.871 E.01602
G1 X134.676 Y151.471 E.01301
G1 X134.544 Y150.693 E.02473
G1 X134.515 Y150.27 E.0133
G1 X134.542 Y149.482 E.02473
G1 X134.598 Y149.071 E.01299
G1 X134.681 Y148.665 E.01299
G1 X134.92 Y147.903 E.02504
G1 X135.26 Y147.18 E.02504
G1 X135.478 Y146.816 E.0133
G1 X135.95 Y146.185 E.02473
G1 X136.23 Y145.88 E.01299
G1 X136.531 Y145.594 E.01299
G1 X137.154 Y145.111 E.02473
G1 X137.515 Y144.887 E.0133
G1 X138.232 Y144.535 E.02504
G1 X138.989 Y144.283 E.02504
G1 X139.394 Y144.193 E.01299
G1 X139.803 Y144.13 E.01299
G1 X140.578 Y144.091 E.02432
G1 X141.004 Y144.111 E.01338
G1 X141.416 Y144.16 E.01301
G1 X142.186 Y144.332 E.02473
G1 X142.579 Y144.463 E.01299
G1 X142.963 Y144.62 E.01299
G1 X143.659 Y144.991 E.02473
G1 X144.011 Y145.227 E.0133
G1 X144.626 Y145.737 E.02503
G1 X145.158 Y146.315 E.02464
G1 X145.414 Y146.656 E.01338
G1 X145.639 Y147.005 E.01301
G1 X145.998 Y147.707 E.02473
G1 X146.153 Y148.102 E.0133
G1 X146.366 Y148.872 E.02504
G1 X146.473 Y149.663 E.02504
G1 X146.488 Y150.087 E.0133
G1 X146.436 Y150.861 E.02432
G1 X146.363 Y151.292 E.01369
G1 X146.153 Y152.053 E.02475
G1 X145.999 Y152.448 E.0133
G1 X145.635 Y153.159 E.02503
G1 X145.186 Y153.804 E.02464
G1 X144.903 Y154.136 E.01369
G1 X144.331 Y154.68 E.02475
G1 X144.003 Y154.933 E.01299
G1 X143.659 Y155.164 E.01299
G1 X142.963 Y155.535 E.02473
G1 X142.57 Y155.696 E.0133
G1 X141.814 Y155.919 E.02473
G1 X141.397 Y155.998 E.0133
G1 X140.611 Y156.064 E.02473
G1 X140.187 Y156.057 E.0133
G1 X139.394 Y155.963 E.02504
G1 X138.621 Y155.763 E.02504
G1 X138.223 Y155.615 E.0133
G1 X137.526 Y155.274 E.02432
G1 X137.155 Y155.044 E.01369
G1 X136.541 Y154.569 E.02435
G1 X136.231 Y154.276 E.01338
G1 X135.95 Y153.97 E.01301
G1 X135.478 Y153.339 E.02473
G1 X135.26 Y152.975 E.0133
G1 X134.991 Y152.404 E.01979
G1 X135.307 Y152.189 F9000
;TYPE:External perimeter
G1 F1200
G1 X135.147 Y151.757 E.01443
G1 X135.045 Y151.388 E.012
G1 X134.919 Y150.649 E.02353
G1 X134.893 Y150.263 E.0121
G1 X134.918 Y149.513 E.02353
G1 X134.97 Y149.134 E.01199
G1 X135.047 Y148.76 E.01199
G1 X135.272 Y148.04 E.02364
G1 X135.593 Y147.358 E.02364
G1 X135.791 Y147.027 E.0121
G1 X136.241 Y146.426 E.02353
G1 X136.5 Y146.144 E.01199
G1 X136.777 Y145.881 E.01199
G1 X137.37 Y145.421 E.02353
G1 X137.698 Y145.217 E.0121
G1 X138.375 Y144.885 E.02364
G1 X139.09 Y144.647 E.02364
G1 X139.464 Y144.564 E.01199
G1 X139.842 Y144.506 E.01199
G1 X140.579 Y144.468 E.02314
G1 X140.973 Y144.487 E.01238
G1 X141.353 Y144.532 E.012
G1 X142.085 Y144.696 E.02353
G1 X142.448 Y144.817 E.01199
G1 X142.802 Y144.961 E.01199
G1 X143.464 Y145.314 E.02353
G1 X143.785 Y145.53 E.01211
G1 X144.365 Y146.011 E.02364
G1 X144.867 Y146.557 E.02325
G1 X145.104 Y146.872 E.01238
G1 X145.312 Y147.194 E.012
G1 X145.654 Y147.862 E.02353
G1 X145.794 Y148.221 E.01211
G1 X145.996 Y148.948 E.02364
G1 X146.097 Y149.695 E.02364
G1 X146.11 Y150.081 E.0121
G1 X146.061 Y150.817 E.02314
G1 X145.995 Y151.21 E.01249
G1 X145.794 Y151.933 E.02354
G1 X145.654 Y152.293 E.0121
G1 X145.311 Y152.964 E.02364
G1 X144.887 Y153.573 E.02325
G1 X144.629 Y153.876 E.01249
G1 X144.085 Y154.393 E.02354
G1 X143.782 Y154.627 E.01199
G1 X143.465 Y154.84 E.01199
G1 X142.802 Y155.194 E.02353
G1 X142.445 Y155.34 E.01211
G1 X141.725 Y155.552 E.02353
G1 X141.346 Y155.624 E.01211
G1 X140.598 Y155.687 E.02353
G1 X140.212 Y155.68 E.0121
G1 X139.463 Y155.591 E.02364
G1 X138.734 Y155.402 E.02364
G1 X138.372 Y155.268 E.0121
G1 X137.709 Y154.944 E.02314
G1 X137.37 Y154.734 E.01249
G1 X136.786 Y154.282 E.02315
G1 X136.5 Y154.011 E.01238
G1 X136.241 Y153.729 E.012
G1 X135.791 Y153.128 E.02353
G1 X135.593 Y152.797 E.0121
G1 X135.332 Y152.243 E.0192
G1 X134.91 Y152.138 F9000
G1 E-4.2 F3600
;WIPE_START
G1 F7200
G1 X135.147 Y151.757 E-.24702
G1 X135.045 Y151.388 E-.18181
G1 X134.919 Y150.649 E-.35645
G1 X134.893 Y150.263 E-.18338
G1 X134.918 Y149.513 E-.35645
G1 X134.97 Y149.134 E-.18169
G1 X135.047 Y148.76 E-.18169
G1 X135.06 Y148.717 E-.02152
;WIPE_END
G1 E-.09 F3600
G1 X128.688 Y150.652 F9000
G1 E6 F2400
;TYPE:Perimeter
G1 F1200
G1 X128.611 Y150.895 E.00801
G1 X128.494 Y151.148 E.00874
G1 X128.347 Y151.385 E.00874
G1 X128.173 Y151.602 E.00874
G1 X127.973 Y151.796 E.00874
G1 X127.75 Y151.964 E.00874
G1 X127.509 Y152.104 E.00874
G1 X127.252 Y152.212 E.00874
G1 X126.984 Y152.289 E.00874
G1 X126.709 Y152.331 E.00874
G1 X126.43 Y152.34 E.00874
G1 X126.153 Y152.314 E.00874
G1 X125.881 Y152.255 E.00874
G1 X125.618 Y152.162 E.00874
G1 X125.353 Y152.03 E.00929
G1 X124.951 Y151.728 E.01574
G1 X124.738 Y151.499 E.00982
G1 X124.576 Y151.269 E.00882
G1 X124.444 Y151.024 E.00874
G1 X124.343 Y150.764 E.00874
G1 X124.275 Y150.494 E.00874
G1 X124.239 Y150.2 E.00928
G1 X124.268 Y149.698 E.01574
G1 X124.346 Y149.377 E.01037
G1 X124.556 Y148.918 E.01582
G1 X124.735 Y148.661 E.00982
G1 X124.924 Y148.453 E.00882
G1 X125.136 Y148.271 E.00874
G1 X125.368 Y148.117 E.00874
G1 X125.618 Y147.993 E.00874
G1 X125.897 Y147.895 E.00929
G1 X126.393 Y147.817 E.01574
G1 X126.706 Y147.824 E.00982
G1 X126.984 Y147.867 E.00882
G1 X127.252 Y147.943 E.00874
G1 X127.509 Y148.052 E.00874
G1 X127.75 Y148.191 E.00874
G1 X127.973 Y148.359 E.00874
G1 X128.173 Y148.553 E.00874
G1 X128.347 Y148.77 E.00874
G1 X128.494 Y149.007 E.00874
G1 X128.611 Y149.26 E.00874
G1 X128.695 Y149.526 E.00874
G1 X128.746 Y149.799 E.00874
G1 X128.763 Y150.078 E.00874
G1 X128.746 Y150.356 E.00874
G1 X128.702 Y150.594 E.00759
G1 X128.329 Y150.538 F9000
;TYPE:External perimeter
G1 F1200
G1 X128.258 Y150.759 E.00728
G1 X128.161 Y150.97 E.00728
G1 X128.039 Y151.167 E.00728
G1 X127.893 Y151.348 E.00728
G1 X127.727 Y151.51 E.00728
G1 X127.542 Y151.649 E.00728
G1 X127.34 Y151.766 E.00728
G1 X127.127 Y151.856 E.00728
G1 X126.903 Y151.92 E.00728
G1 X126.674 Y151.955 E.00728
G1 X126.442 Y151.962 E.00728
G1 X126.211 Y151.941 E.00728
G1 X125.984 Y151.891 E.00728
G1 X125.765 Y151.814 E.00728
G1 X125.552 Y151.708 E.00748
G1 X125.205 Y151.447 E.0136
G1 X125.032 Y151.261 E.00798
G1 X124.897 Y151.07 E.00731
G1 X124.787 Y150.866 E.00728
G1 X124.703 Y150.649 E.00728
G1 X124.647 Y150.424 E.00728
G1 X124.617 Y150.188 E.00747
G1 X124.643 Y149.754 E.0136
G1 X124.704 Y149.501 E.00818
G1 X124.885 Y149.105 E.01363
G1 X125.03 Y148.896 E.00798
G1 X125.187 Y148.724 E.00731
G1 X125.364 Y148.573 E.00728
G1 X125.557 Y148.445 E.00728
G1 X125.765 Y148.341 E.00728
G1 X125.99 Y148.262 E.00748
G1 X126.418 Y148.194 E.0136
G1 X126.673 Y148.2 E.00799
G1 X126.903 Y148.236 E.00731
G1 X127.127 Y148.299 E.00728
G1 X127.34 Y148.39 E.00728
G1 X127.542 Y148.506 E.00728
G1 X127.727 Y148.646 E.00728
G1 X127.893 Y148.807 E.00728
G1 X128.039 Y148.988 E.00728
G1 X128.161 Y149.186 E.00728
G1 X128.258 Y149.396 E.00728
G1 X128.329 Y149.618 E.00728
G1 X128.371 Y149.846 E.00728
G1 X128.386 Y150.078 E.00728
G1 X128.34 Y150.479 E.01265
G1 X128.499 Y150.696 F9000
G1 E-4.2 F3600
;WIPE_START
G1 F7200
G1 X128.258 Y150.759 E-.1386
G1 X128.161 Y150.97 E-.11028
G1 X128.039 Y151.167 E-.11027
G1 X127.893 Y151.348 E-.11027
G1 X127.727 Y151.51 E-.11028
G1 X127.542 Y151.649 E-.11028
G1 X127.34 Y151.766 E-.11027
G1 X127.127 Y151.856 E-.11028
G1 X126.903 Y151.92 E-.11028
G1 X126.674 Y151.955 E-.11027
G1 X126.442 Y151.962 E-.11028
G1 X126.211 Y151.941 E-.11027
G1 X125.984 Y151.891 E-.11028
G1 X125.765 Y151.814 E-.11027
G1 X125.552 Y151.708 E-.11325
G1 X125.51 Y151.677 E-.02458
;WIPE_END
G1 E-.09 F3600
G1 X159.65 Y150.479 F9000
G1 E6 F2400
;TYPE:Perimeter
G1 F1200
G1 X159.643 Y146.839 E.11413
G1 X159.703 Y146.347 E.01556
G1 X159.796 Y146.049 E.00978
G1 X160.044 Y145.576 E.01676
G1 X160.399 Y145.176 E.01676
G1 X160.644 Y144.983 E.00978
G1 X161.102 Y144.743 E.0162
G1 X161.399 Y144.65 E.00978
G1 X161.891 Y144.59 E.01554
G1 X162.529 Y144.59 E.01998
G1 X163.038 Y144.652 E.01608
G1 X163.521 Y144.834 E.01618
G1 X163.803 Y145.002 E.01029
G1 X164.192 Y145.346 E.01628
G1 X164.384 Y145.592 E.00978
G1 X164.633 Y146.065 E.01676
G1 X164.765 Y146.601 E.01732
G1 X164.765 Y153.504 E.21642
G1 X164.633 Y154.04 E.01732
G1 X164.384 Y154.513 E.01676
G1 X164.192 Y154.759 E.00978
G1 X163.805 Y155.102 E.0162
G1 X163.554 Y155.254 E.00922
G1 X163.285 Y155.374 E.00922
G1 X162.766 Y155.502 E.01676
G1 X161.654 Y155.502 E.03488
G1 X161.118 Y155.37 E.01732
G1 X160.644 Y155.122 E.01676
G1 X160.399 Y154.929 E.00978
G1 X160.044 Y154.529 E.01676
G1 X159.787 Y154.04 E.01732
G1 X159.655 Y153.504 E.0173
G1 X159.65 Y150.539 E.09297
G1 X160.027 Y150.479 F9000
;TYPE:External perimeter
G1 F1200
G1 X160.02 Y146.862 E.1134
G1 X160.073 Y146.426 E.01376
G1 X160.146 Y146.194 E.00763
G1 X160.357 Y145.791 E.01425
G1 X160.658 Y145.451 E.01425
G1 X160.85 Y145.301 E.00763
G1 X161.247 Y145.093 E.01405
G1 X161.479 Y145.021 E.00763
G1 X161.914 Y144.967 E.01375
G1 X162.506 Y144.967 E.01855
G1 X162.947 Y145.021 E.01395
G1 X163.357 Y145.176 E.01373
G1 X163.58 Y145.308 E.00813
G1 X163.916 Y145.606 E.01408
G1 X164.066 Y145.797 E.00763
G1 X164.278 Y146.2 E.01425
G1 X164.388 Y146.647 E.01445
G1 X164.388 Y153.458 E.21355
G1 X164.278 Y153.905 E.01445
G1 X164.066 Y154.308 E.01425
G1 X163.916 Y154.499 E.00763
G1 X163.581 Y154.797 E.01405
G1 X163.378 Y154.919 E.00743
G1 X163.162 Y155.017 E.00743
G1 X162.721 Y155.125 E.01425
G1 X161.7 Y155.125 E.03201
G1 X161.252 Y155.015 E.01445
G1 X160.85 Y154.804 E.01425
G1 X160.658 Y154.654 E.00763
G1 X160.357 Y154.313 E.01425
G1 X160.143 Y153.905 E.01445
G1 X160.032 Y153.458 E.01444
G1 X160.027 Y150.539 E.09154
G1 X159.678 Y150.283 F9000
G1 E-4.2 F3600
;WIPE_START
G1 F7200
G1 X160.02 Y146.939 E-1.71
;WIPE_END
G1 E-.09 F3600
G1 X171.241 Y150.01 F9000
G1 E6 F2400
;TYPE:Perimeter
G1 F1200
G1 X171.268 Y149.543 E.01466
G1 X171.342 Y149.239 E.00982
G1 X171.444 Y148.976 E.00882
G1 X171.576 Y148.731 E.00874
G1 X171.747 Y148.489 E.00929
G1 X172.106 Y148.139 E.01574
G1 X172.366 Y147.963 E.00982
G1 X172.618 Y147.838 E.00882
G1 X172.897 Y147.74 E.00928
G1 X173.393 Y147.661 E.01574
G1 X173.706 Y147.668 E.00982
G1 X173.984 Y147.711 E.00882
G1 X174.252 Y147.788 E.00874
G1 X174.509 Y147.896 E.00874
G1 X174.75 Y148.036 E.00874
G1 X174.973 Y148.204 E.00874
G1 X175.173 Y148.398 E.00874
G1 X175.347 Y148.615 E.00874
G1 X175.494 Y148.852 E.00874
G1 X175.611 Y149.105 E.00874
