; generated by PrusaSlicer 2.4.2+x64 on 2022-07-06 at 12:06:38 UTC

; 

; external perimeters extrusion width = 0.45mm
; perimeters extrusion width = 0.45mm
; infill extrusion width = 0.45mm
; solid infill extrusion width = 0.45mm
; top infill extrusion width = 0.40mm
; support material extrusion width = 0.38mm
; first layer extrusion width = 0.42mm

M107
;TYPE:Custom
G90 ; use absolute coordinates
M83 ; extruder relative mode
M140 S60 ; set final bed temp
M104 S150 ; set temporary nozzle temp to prevent oozing during homing and auto bed leveling
M190 S60 ; wait for bed temp to stabilize
G28 ; home all axis
G29 ; auto bed levelling
G1 Z50 F240
G1 X2 Y10 F3000
M104 S210 ; set final nozzle temp
M109 S210 ; wait for nozzle temp to stabilize
G1 Z0.28 F240
G92 E0
G1 Y140 E10 F1500 ; prime the nozzle
G1 X2.3 F5000
G92 E0
G1 Y10 E10 F1200 ; prime the nozzle
G92 E0
G21 ; set units to millimeters
G90 ; use absolute coordinates
M83 ; use relative distances for extrusion
; Filament gcode
M107
;LAYER_CHANGE
;Z:0.2
;HEIGHT:0.2
;BEFORE_LAYER_CHANGE
G92 E0
;0.2


G1 E-6 F3600
G1 Z.2 F9000
;AFTER_LAYER_CHANGE
;0.2
G1 X130.391 Y146.3
G1 E6 F2400
M204 S500
;TYPE:Skirt/Brim
;WIDTH:0.42
G1 F1200
G1 X131.217 Y145.586 E.03423
G1 X132.228 Y144.886 E.03857
G1 X147.256 Y135.878 E.54936
G1 X148.066 Y135.516 E.0278
G1 X148.761 Y135.316 E.02267
G1 X150.175 Y135.184 E.04455
G1 X150.895 Y135.251 E.02267
G1 X151.758 Y135.456 E.0278
G1 X152.994 Y136.02 E.0426
G1 X167.889 Y144.959 E.54468
G1 X169.205 Y145.933 E.05131
G1 X170.358 Y147.094 E.05131
G1 X171.502 Y148.723 E.06242
G1 X172.205 Y150.201 E.05131
G1 X172.676 Y151.768 E.05131
G1 X172.903 Y153.389 E.05131
G1 X172.881 Y155.025 E.05131
G1 X172.611 Y156.64 E.05131
G1 X172.1 Y158.194 E.05131
G1 X171.258 Y159.815 E.05727
G1 X170.628 Y160.707 E.03423
G1 X169.661 Y161.782 E.04535
G1 X168.689 Y162.618 E.04019
G1 X167.788 Y163.235 E.03423
G1 X166.83 Y163.758 E.03423
G1 X165.487 Y164.295 E.04535
G1 X164.433 Y164.579 E.03423
G1 X163.166 Y164.773 E.04019
G1 X137.189 Y164.8 E.8145
G1 X135.754 Y164.617 E.04535
G1 X134.513 Y164.295 E.04019
G1 X133.17 Y163.758 E.04535
G1 X132.05 Y163.134 E.04019
G1 X130.477 Y161.913 E.06242
G1 X129.72 Y161.128 E.03423
G1 X129.046 Y160.269 E.03423
G1 X128.462 Y159.347 E.03423
G1 X127.975 Y158.37 E.03423
G1 X127.589 Y157.348 E.03423
G1 X127.309 Y156.293 E.03423
G1 X127.138 Y155.215 E.03423
G1 X127.076 Y154.125 E.03423
G1 X127.126 Y153.035 E.03423
G1 X127.285 Y151.955 E.03423
G1 X127.803 Y150.181 E.05794
G1 X128.238 Y149.203 E.03356
G1 X128.781 Y148.256 E.03423
G1 X129.642 Y147.094 E.04535
G1 X130.35 Y146.344 E.03235
G1 X130.624 Y146.603 F9000
G1 F1200
G1 X131.454 Y145.88 E.0345
G1 X132.422 Y145.209 E.03693
G1 X147.441 Y136.206 E.54904
G1 X148.187 Y135.873 E.02559
G1 X148.848 Y135.683 E.02157
G1 X150.158 Y135.561 E.04125
G1 X150.843 Y135.625 E.02157
G1 X151.637 Y135.813 E.02559
G1 X152.8 Y136.344 E.04008
G1 X167.683 Y145.275 E.54425
G1 X168.954 Y146.214 E.04951
G1 X170.067 Y147.334 E.04952
G1 X171.178 Y148.916 E.06062
G1 X171.856 Y150.342 E.04951
G1 X172.309 Y151.855 E.04952
G1 X172.527 Y153.419 E.04951
G1 X172.488 Y155.169 E.05487
G1 X172.201 Y156.722 E.04951
G1 X171.682 Y158.213 E.04951
G1 X170.748 Y159.906 E.06062
G1 X170 Y160.875 E.0384
G1 X169.269 Y161.634 E.03303
G1 X168.179 Y162.525 E.04415
G1 X167.291 Y163.091 E.03303
G1 X166.192 Y163.631 E.03839
G1 X165.201 Y163.99 E.03303
G1 X164.18 Y164.246 E.03303
G1 X162.783 Y164.424 E.04415
G1 X137.217 Y164.424 E.80159
G1 X135.82 Y164.246 E.04415
G1 X134.615 Y163.931 E.03907
G1 X133.174 Y163.339 E.04884
G1 X131.961 Y162.624 E.04415
G1 X131.124 Y161.985 E.03303
G1 X130.356 Y161.264 E.03303
G1 X129.252 Y159.906 E.05487
G1 X128.704 Y159.006 E.03303
G1 X128.251 Y158.055 E.03303
G1 X127.896 Y157.064 E.03303
G1 X127.643 Y156.041 E.03303
G1 X127.495 Y154.998 E.03303
G1 X127.454 Y153.946 E.03303
G1 X127.52 Y152.894 E.03303
G1 X127.691 Y151.855 E.03303
G1 X128.278 Y150.013 E.06062
G1 X128.738 Y149.065 E.03303
G1 X129.292 Y148.169 E.03303
G1 X129.933 Y147.334 E.03303
G1 X130.583 Y146.646 E.02966
G1 E-4.2 F3600
;WIPE_START
G1 F7200
G1 X131.454 Y145.88 E-.55107
G1 X132.422 Y145.209 E-.55946
G1 X133.505 Y144.56 E-.59947
;WIPE_END
G1 E-.09 F3600
G1 X147.411 Y149.484 F9000
G1 E6 F2400
;TYPE:Perimeter
G1 F1200
G1 X147.647 Y148.993 E.01709
G1 X147.954 Y148.585 E.01601
G1 X148.33 Y148.24 E.01601
G1 X148.764 Y147.971 E.01601
G1 X149.24 Y147.785 E.01604
G1 X149.753 Y147.69 E.01635
G1 X150.239 Y147.691 E.01523
G1 X150.518 Y147.729 E.00885
G1 X150.997 Y147.865 E.01561
G1 X151.454 Y148.093 E.01601
G1 X151.862 Y148.4 E.016
G1 X152.206 Y148.777 E.016
G1 X152.475 Y149.211 E.016
G1 X152.659 Y149.687 E.016
G1 X152.753 Y150.189 E.016
G1 X152.753 Y150.699 E.016
G1 X152.659 Y151.201 E.016
G1 X152.48 Y151.664 E.01558
G1 X152.342 Y151.91 E.00885
G1 X152.05 Y152.298 E.01523
G1 X151.666 Y152.65 E.01633
G1 X151.231 Y152.919 E.01604
G1 X150.754 Y153.104 E.01603
G1 X150.252 Y153.197 E.01601
G1 X149.741 Y153.196 E.01601
G1 X149.24 Y153.102 E.01601
G1 X148.777 Y152.922 E.01558
G1 X148.53 Y152.784 E.00884
G1 X148.143 Y152.491 E.01523
G1 X147.791 Y152.106 E.01635
G1 X147.523 Y151.671 E.01603
G1 X147.339 Y151.195 E.01601
G1 X147.247 Y150.693 E.01598
G1 X147.247 Y150.208 E.01521
G1 X147.285 Y149.929 E.00884
G1 X147.394 Y149.542 E.0126
G1 X147.773 Y149.587 F9000
;TYPE:External perimeter
G1 F1200
G1 X147.969 Y149.192 E.01382
G1 X148.234 Y148.84 E.01381
G1 X148.559 Y148.542 E.01382
G1 X148.933 Y148.31 E.01381
G1 X149.344 Y148.15 E.01383
G1 X149.788 Y148.068 E.01415
G1 X150.213 Y148.068 E.01332
G1 X150.441 Y148.099 E.00721
G1 X150.861 Y148.218 E.01369
G1 X151.255 Y148.415 E.01381
G1 X151.607 Y148.68 E.01381
G1 X151.904 Y149.005 E.01381
G1 X152.136 Y149.38 E.01381
G1 X152.295 Y149.791 E.01381
G1 X152.376 Y150.224 E.01381
G1 X152.376 Y150.664 E.01381
G1 X152.295 Y151.097 E.01381
G1 X152.137 Y151.503 E.01366
G1 X152.025 Y151.704 E.00721
G1 X151.77 Y152.044 E.01333
G1 X151.437 Y152.348 E.01413
G1 X151.062 Y152.58 E.01382
G1 X150.651 Y152.739 E.01384
G1 X150.217 Y152.82 E.01382
G1 X149.777 Y152.819 E.01382
G1 X149.344 Y152.738 E.01382
G1 X148.938 Y152.58 E.01366
G1 X148.737 Y152.467 E.00721
G1 X148.398 Y152.211 E.01333
G1 X148.093 Y151.878 E.01415
G1 X147.862 Y151.503 E.01382
G1 X147.704 Y151.092 E.01382
G1 X147.624 Y150.659 E.01381
G1 X147.624 Y150.234 E.01332
G1 X147.655 Y150.006 E.00721
G1 X147.757 Y149.644 E.01178
G1 X147.527 Y149.272 F9000
G1 E-4.2 F3600
;WIPE_START
G1 F7200
G1 X147.969 Y149.192 E-.23738
G1 X148.234 Y148.84 E-.20928
G1 X148.559 Y148.542 E-.20931
G1 X148.933 Y148.31 E-.20929
G1 X149.344 Y148.15 E-.20945
G1 X149.788 Y148.068 E-.21433
G1 X150.213 Y148.068 E-.20187
G1 X150.441 Y148.099 E-.10928
G1 X150.663 Y148.162 E-.10981
;WIPE_END
G1 E-.09 F3600
G1 X149.271 Y145.962 F9000
G1 E6 F2400
;TYPE:Perimeter
G1 F1200
G1 X148.799 Y145.742 E.01632
G1 X148.442 Y145.464 E.01419
G1 X148.248 Y145.256 E.00891
G1 X147.99 Y144.866 E.01467
G1 X147.814 Y144.418 E.0151
G1 X147.738 Y143.942 E.0151
G1 X147.763 Y143.461 E.0151
G1 X147.886 Y143.012 E.01461
G1 X147.998 Y142.764 E.00854
G1 X148.256 Y142.376 E.01461
G1 X148.601 Y142.04 E.0151
G1 X149.009 Y141.784 E.0151
G1 X149.462 Y141.621 E.01508
G1 X149.91 Y141.56 E.01419
G1 X150.194 Y141.566 E.00891
G1 X150.654 Y141.653 E.01467
G1 X151.098 Y141.84 E.0151
G1 X151.492 Y142.117 E.0151
G1 X151.818 Y142.47 E.01509
G1 X152.049 Y142.86 E.01419
G1 X152.154 Y143.124 E.00891
G1 X152.253 Y143.581 E.01467
G1 X152.253 Y144.062 E.0151
G1 X152.151 Y144.533 E.0151
G1 X151.952 Y144.971 E.01508
G1 X151.683 Y145.335 E.01419
G1 X151.481 Y145.535 E.00891
G1 X151.098 Y145.803 E.01467
G1 X150.654 Y145.991 E.0151
G1 X150.181 Y146.08 E.0151
G1 X149.699 Y146.067 E.0151
G1 X149.329 Y145.977 E.01196
G1 X149.36 Y145.596 F9000
;TYPE:External perimeter
G1 F1200
G1 X149 Y145.421 E.01257
G1 X148.698 Y145.185 E.01202
G1 X148.545 Y145.021 E.00701
G1 X148.326 Y144.691 E.01242
G1 X148.18 Y144.318 E.01257
G1 X148.116 Y143.922 E.01257
G1 X148.138 Y143.522 E.01257
G1 X148.242 Y143.14 E.0124
G1 X148.329 Y142.947 E.00664
G1 X148.548 Y142.618 E.0124
G1 X148.835 Y142.338 E.01257
G1 X149.175 Y142.125 E.01257
G1 X149.552 Y141.989 E.01257
G1 X149.932 Y141.938 E.01202
G1 X150.155 Y141.942 E.00701
G1 X150.545 Y142.016 E.01242
G1 X150.914 Y142.172 E.01257
G1 X151.242 Y142.402 E.01257
G1 X151.514 Y142.697 E.01257
G1 X151.709 Y143.026 E.01202
G1 X151.792 Y143.234 E.00701
G1 X151.876 Y143.621 E.01242
G1 X151.876 Y144.022 E.01257
G1 X151.791 Y144.414 E.01257
G1 X151.625 Y144.779 E.01257
G1 X151.397 Y145.087 E.01201
G1 X151.238 Y145.244 E.00701
G1 X150.914 Y145.472 E.01242
G1 X150.545 Y145.628 E.01257
G1 X150.151 Y145.702 E.01257
G1 X149.75 Y145.691 E.01257
G1 X149.418 Y145.61 E.01069
G1 X149.054 Y145.854 F9000
G1 E-4.2 F3600
;WIPE_START
G1 F7200
G1 X149 Y145.421 E-.21833
G1 X148.698 Y145.185 E-.18203
G1 X148.545 Y145.021 E-.10619
G1 X148.326 Y144.691 E-.18812
G1 X148.18 Y144.318 E-.19048
G1 X148.116 Y143.922 E-.19048
G1 X148.138 Y143.522 E-.19048
G1 X148.242 Y143.14 E-.1878
G1 X148.329 Y142.947 E-.10066
G1 X148.51 Y142.674 E-.15543
;WIPE_END
G1 E-.09 F3600
G1 X159.838 Y152.587 F9000
G1 E6 F2400
;TYPE:Perimeter
G1 F1200
G1 X160.124 Y152.207 E.01491
G1 X160.501 Y151.863 E.01601
G1 X160.934 Y151.593 E.01601
G1 X161.411 Y151.408 E.01604
G1 X161.924 Y151.313 E.01634
G1 X162.409 Y151.313 E.01523
G1 X162.689 Y151.352 E.00885
G1 X163.168 Y151.487 E.01561
G1 X163.625 Y151.715 E.01601
G1 X164.032 Y152.022 E.016
G1 X164.376 Y152.399 E.016
G1 X164.645 Y152.833 E.016
G1 X164.83 Y153.309 E.016
G1 X164.923 Y153.811 E.016
G1 X164.923 Y154.321 E.016
G1 X164.83 Y154.823 E.016
G1 X164.65 Y155.286 E.01557
G1 X164.513 Y155.533 E.00885
G1 X164.22 Y155.921 E.01524
G1 X163.837 Y156.272 E.01632
G1 X163.402 Y156.541 E.01603
G1 X162.926 Y156.726 E.01601
G1 X162.423 Y156.819 E.01604
G1 X161.912 Y156.819 E.01601
G1 X161.41 Y156.724 E.01601
G1 X160.947 Y156.544 E.01558
G1 X160.701 Y156.406 E.00884
G1 X160.313 Y156.114 E.01524
G1 X159.962 Y155.729 E.01634
G1 X159.693 Y155.293 E.01603
G1 X159.51 Y154.817 E.01601
G1 X159.417 Y154.315 E.01599
G1 X159.417 Y153.83 E.01522
G1 X159.456 Y153.551 E.00884
G1 X159.591 Y153.073 E.01558
G1 X159.806 Y152.638 E.01522
G1 X160.14 Y152.814 F9000
;TYPE:External perimeter
G1 F1200
G1 X160.404 Y152.462 E.01382
G1 X160.73 Y152.164 E.01382
G1 X161.104 Y151.932 E.01381
G1 X161.515 Y151.772 E.01383
G1 X161.958 Y151.69 E.01414
G1 X162.383 Y151.69 E.01333
G1 X162.611 Y151.722 E.00721
G1 X163.031 Y151.841 E.01369
G1 X163.426 Y152.037 E.01381
G1 X163.777 Y152.302 E.01381
G1 X164.074 Y152.628 E.01381
G1 X164.306 Y153.002 E.01381
G1 X164.465 Y153.413 E.01381
G1 X164.546 Y153.846 E.01381
G1 X164.546 Y154.286 E.01381
G1 X164.465 Y154.719 E.01381
G1 X164.308 Y155.125 E.01366
G1 X164.196 Y155.326 E.00721
G1 X163.94 Y155.666 E.01334
G1 X163.608 Y155.97 E.01412
G1 X163.233 Y156.202 E.01382
G1 X162.822 Y156.361 E.01381
G1 X162.388 Y156.442 E.01385
G1 X161.947 Y156.441 E.01382
G1 X161.514 Y156.36 E.01382
G1 X161.108 Y156.202 E.01366
G1 X160.908 Y156.09 E.00721
G1 X160.568 Y155.834 E.01333
G1 X160.264 Y155.501 E.01414
G1 X160.033 Y155.125 E.01382
G1 X159.874 Y154.714 E.01382
G1 X159.794 Y154.281 E.01381
G1 X159.794 Y153.856 E.01333
G1 X159.826 Y153.628 E.00721
G1 X159.944 Y153.209 E.01366
G1 X160.113 Y152.868 E.01193
G1 X159.95 Y152.462 F9000
G1 E-4.2 F3600
;WIPE_START
G1 F7200
G1 X160.404 Y152.462 E-.23736
G1 X160.73 Y152.164 E-.2093
G1 X161.104 Y151.932 E-.20928
G1 X161.515 Y151.772 E-.20945
G1 X161.958 Y151.69 E-.21419
G1 X162.383 Y151.69 E-.20199
G1 X162.611 Y151.722 E-.10928
G1 X163.031 Y151.841 E-.20738
G1 X163.242 Y151.945 E-.11176
;WIPE_END
G1 E-.09 F3600
G1 X151.791 Y155.685 F9000
G1 E6 F2400
;TYPE:Perimeter
G1 F1200
G1 X152.049 Y156.104 E.01541
G1 X152.154 Y156.368 E.00891
G1 X152.253 Y156.825 E.01467
G1 X152.253 Y157.307 E.0151
G1 X152.151 Y157.778 E.0151
G1 X151.952 Y158.216 E.01508
G1 X151.683 Y158.579 E.01419
G1 X151.481 Y158.779 E.00891
G1 X151.098 Y159.048 E.01467
G1 X150.654 Y159.235 E.0151
G1 X150.181 Y159.324 E.0151
G1 X149.699 Y159.312 E.0151
G1 X149.231 Y159.197 E.0151
G1 X148.812 Y158.994 E.01461
G1 X148.59 Y158.837 E.00854
G1 X148.256 Y158.512 E.01461
G1 X147.99 Y158.111 E.0151
G1 X147.814 Y157.662 E.0151
G1 X147.738 Y157.187 E.0151
G1 X147.763 Y156.706 E.01508
G1 X147.882 Y156.269 E.01419
G1 X147.997 Y156.01 E.00891
G1 X148.256 Y155.62 E.01467
G1 X148.601 Y155.284 E.0151
G1 X149.009 Y155.029 E.0151
G1 X149.462 Y154.865 E.01508
G1 X149.91 Y154.805 E.01419
G1 X150.194 Y154.81 E.00891
G1 X150.654 Y154.897 E.01467
G1 X151.098 Y155.084 E.0151
G1 X151.492 Y155.361 E.0151
G1 X151.75 Y155.641 E.01195
G1 X151.514 Y155.941 F9000
;TYPE:External perimeter
G1 F1200
G1 X151.709 Y156.271 E.01202
G1 X151.792 Y156.478 E.00701
G1 X151.876 Y156.866 E.01242
G1 X151.876 Y157.267 E.01257
G1 X151.791 Y157.658 E.01257
G1 X151.625 Y158.023 E.01257
G1 X151.397 Y158.331 E.01201
G1 X151.238 Y158.488 E.00701
G1 X150.914 Y158.716 E.01242
G1 X150.545 Y158.872 E.01257
G1 X150.151 Y158.946 E.01257
G1 X149.75 Y158.936 E.01257
G1 X149.36 Y158.84 E.01257
G1 X149.005 Y158.668 E.0124
G1 X148.831 Y158.546 E.00665
G1 X148.548 Y158.27 E.0124
G1 X148.326 Y157.936 E.01257
G1 X148.18 Y157.562 E.01257
G1 X148.116 Y157.166 E.01257
G1 X148.138 Y156.766 E.01257
G1 X148.238 Y156.396 E.01202
G1 X148.329 Y156.192 E.00701
G1 X148.548 Y155.862 E.01242
G1 X148.835 Y155.582 E.01257
G1 X149.175 Y155.37 E.01257
G1 X149.552 Y155.234 E.01257
G1 X149.932 Y155.182 E.01201
G1 X150.155 Y155.187 E.00701
G1 X150.545 Y155.26 E.01242
G1 X150.914 Y155.416 E.01257
G1 X151.242 Y155.646 E.01257
G1 X151.473 Y155.897 E.01069
G1 X151.895 Y155.896 F9000
G1 E-4.2 F3600
;WIPE_START
G1 F7200
G1 X151.709 Y156.271 E-.20998
G1 X151.792 Y156.478 E-.10618
G1 X151.876 Y156.866 E-.18813
G1 X151.876 Y157.267 E-.19048
G1 X151.791 Y157.658 E-.19048
G1 X151.625 Y158.023 E-.19039
G1 X151.397 Y158.331 E-.18202
G1 X151.238 Y158.488 E-.10619
G1 X150.914 Y158.716 E-.18813
G1 X150.608 Y158.845 E-.15803
;WIPE_END
G1 E-.09 F3600
G1 X140.582 Y154.286 F9000
G1 E6 F2400
;TYPE:Perimeter
G1 F1200
G1 X140.489 Y154.823 E.01708
G1 X140.309 Y155.286 E.01558
G1 X140.172 Y155.533 E.00885
G1 X139.879 Y155.921 E.01524
G1 X139.496 Y156.272 E.01632
G1 X139.061 Y156.541 E.01604
G1 X138.584 Y156.726 E.01604
G1 X138.082 Y156.819 E.01601
G1 X137.571 Y156.819 E.01601
G1 X137.069 Y156.724 E.01601
G1 X136.606 Y156.544 E.01558
G1 X136.36 Y156.406 E.00884
G1 X135.972 Y156.114 E.01524
G1 X135.621 Y155.729 E.01634
G1 X135.352 Y155.293 E.01603
G1 X135.169 Y154.817 E.01601
G1 X135.076 Y154.315 E.01599
G1 X135.076 Y153.83 E.01522
G1 X135.115 Y153.551 E.00884
G1 X135.25 Y153.073 E.01558
G1 X135.476 Y152.615 E.01601
G1 X135.783 Y152.207 E.01601
G1 X136.16 Y151.863 E.01601
G1 X136.593 Y151.593 E.01601
G1 X137.07 Y151.408 E.01604
G1 X137.583 Y151.313 E.01634
G1 X138.068 Y151.313 E.01523
G1 X138.348 Y151.352 E.00885
G1 X138.827 Y151.487 E.01561
G1 X139.284 Y151.715 E.01601
G1 X139.691 Y152.022 E.016
G1 X140.035 Y152.399 E.016
G1 X140.304 Y152.833 E.016
G1 X140.489 Y153.309 E.016
G1 X140.582 Y153.811 E.016
G1 X140.582 Y154.226 E.01303
G1 X140.205 Y154.286 F9000
;TYPE:External perimeter
G1 F1200
G1 X140.124 Y154.719 E.01381
G1 X139.967 Y155.125 E.01366
G1 X139.855 Y155.326 E.00721
G1 X139.599 Y155.666 E.01334
G1 X139.267 Y155.97 E.01412
G1 X138.892 Y156.202 E.01382
G1 X138.48 Y156.362 E.01384
G1 X138.047 Y156.442 E.01382
G1 X137.606 Y156.441 E.01381
G1 X137.173 Y156.36 E.01382
G1 X136.767 Y156.202 E.01366
G1 X136.567 Y156.09 E.00721
G1 X136.227 Y155.834 E.01333
G1 X135.923 Y155.501 E.01414
G1 X135.692 Y155.125 E.01382
G1 X135.533 Y154.714 E.01382
G1 X135.453 Y154.281 E.01381
G1 X135.453 Y153.856 E.01333
G1 X135.485 Y153.628 E.00721
G1 X135.603 Y153.209 E.01366
G1 X135.799 Y152.814 E.01382
G1 X136.063 Y152.462 E.01381
G1 X136.389 Y152.164 E.01382
G1 X136.763 Y151.932 E.01382
G1 X137.174 Y151.772 E.01383
G1 X137.617 Y151.69 E.01414
G1 X138.042 Y151.69 E.01333
G1 X138.27 Y151.722 E.00721
G1 X138.69 Y151.841 E.01369
G1 X139.085 Y152.037 E.01381
G1 X139.436 Y152.302 E.01381
