; generated by PrusaSlicer 2.4.2+x64 on 2022-07-06 at 16:28:24 UTC

; 

; external perimeters extrusion width = 0.45mm
; perimeters extrusion width = 0.45mm
; infill extrusion width = 0.45mm
; solid infill extrusion width = 0.45mm
; top infill extrusion width = 0.40mm
; support material extrusion width = 0.38mm
; first layer extrusion width = 0.42mm

M107
;TYPE:Custom
G90 ; use absolute coordinates
M83 ; extruder relative mode
M140 S60 ; set final bed temp
M104 S150 ; set temporary nozzle temp to prevent oozing during homing and auto bed leveling
M190 S60 ; wait for bed temp to stabilize
G28 ; home all axis
G29 ; auto bed levelling
G1 Z50 F240
G1 X2 Y10 F3000
M104 S210 ; set final nozzle temp
M109 S210 ; wait for nozzle temp to stabilize
G1 Z0.28 F240
G92 E0
G1 Y140 E10 F1500 ; prime the nozzle
G1 X2.3 F5000
G92 E0
G1 Y10 E10 F1200 ; prime the nozzle
G92 E0
G21 ; set units to millimeters
G90 ; use absolute coordinates
M83 ; use relative distances for extrusion
; Filament gcode
M107
;LAYER_CHANGE
;Z:0.2
;HEIGHT:0.2
;BEFORE_LAYER_CHANGE
G92 E0
;0.2


G1 E-6 F3600
G1 Z.2 F9000
;AFTER_LAYER_CHANGE
;0.2
G1 X115.545 Y93.262
G1 E6 F2400
M204 S500
;TYPE:Skirt/Brim
;WIDTH:0.42
G1 F1200
G1 X116.919 Y92.382 E.05115
G1 X118 Y92.204 E.03437
G1 X182 Y92.204 E2.00668
G1 X183.584 Y92.598 E.05115
G1 X184.797 Y93.689 E.05115
G1 X185.256 Y94.684 E.03437
G1 X202.075 Y155.71 E1.98476
G1 X202.716 Y158.329 E.08453
G1 X202.984 Y159.873 E.04914
G1 X203.269 Y162.686 E.08864
G1 X203.303 Y165.359 E.08384
G1 X203.216 Y166.924 E.04914
G1 X202.861 Y169.729 E.08864
G1 X202.292 Y172.342 E.08384
G1 X201.45 Y175.041 E.08864
G1 X200.879 Y176.5 E.04914
G1 X200.301 Y177.79 E.04433
G1 X199.05 Y180.154 E.08384
G1 X197.423 Y182.651 E.09345
G1 X196.57 Y183.778 E.04433
G1 X194.819 Y185.8 E.08384
G1 X192.787 Y187.765 E.08864
G1 X190.524 Y189.584 E.09105
G1 X168.285 Y205.803 E.86301
G1 X166.547 Y206.825 E.06323
G1 X165.683 Y207.181 E.02927
G1 X164.178 Y207.597 E.04899
G1 X162.171 Y207.796 E.06323
G1 X137.678 Y207.792 E.76796
G1 X136.121 Y207.652 E.04899
G1 X135.208 Y207.457 E.02927
G1 X133.453 Y206.825 E.05849
G1 X131.715 Y205.803 E.06323
G1 X109.476 Y189.584 E.86301
G1 X107.328 Y187.866 E.08625
G1 X105.286 Y185.911 E.08865
G1 X104.234 Y184.75 E.04914
G1 X102.487 Y182.526 E.08864
G1 X101.028 Y180.286 E.08384
G1 X100.263 Y178.918 E.04914
G1 X99.121 Y176.5 E.08384
G1 X98.144 Y173.847 E.08865
G1 X97.412 Y171.116 E.08865
G1 X97.113 Y169.578 E.04914
G1 X96.772 Y166.771 E.08864
G1 X96.687 Y163.945 E.08865
G1 X96.882 Y160.931 E.09471
G1 X97.255 Y158.479 E.07776
G1 X97.556 Y157.097 E.04433
G1 X114.745 Y94.684 E2.02978
G1 X115.516 Y93.315 E.04927
G1 E-4.2 F3600
;WIPE_START
G1 F7200
G1 X116.919 Y92.382 E-.80023
G1 X118 Y92.204 E-.52064
G1 X118.82 Y92.204 E-.38913
;WIPE_END
G1 E-.09 F3600
G1 X117.902 Y149.379 F9000
G1 E6 F2400
;TYPE:Support material
G1 F1200
G1 X121.334 Y149.379 E.10759
G1 X121.334 Y148.481 E.02813
G1 X124.52 Y148.481 E.0999
G1 X124.52 Y151.2 E.08525
G1 X124.801 Y151.481 E.01247
G1 X189.449 Y151.481 E2.027
G1 X189.509 Y152.721 E.0389
G1 X189.52 Y153.566 E.0265
G1 X189.52 Y170.992 E.5464
G1 X189.493 Y171.713 E.0226
G1 X189.413 Y172.42 E.02232
G1 X189.281 Y173.12 E.02232
G1 X189.097 Y173.807 E.02232
G1 X188.862 Y174.479 E.02232
G1 X188.577 Y175.132 E.02232
G1 X188.244 Y175.761 E.02232
G1 X187.866 Y176.364 E.02232
G1 X187.443 Y176.937 E.02232
G1 X186.978 Y177.476 E.02232
G1 X186.475 Y177.98 E.02232
G1 X185.935 Y178.444 E.02232
G1 X185.363 Y178.867 E.02232
G1 X184.76 Y179.246 E.02232
G1 X184.13 Y179.578 E.02232
G1 X183.478 Y179.863 E.02232
G1 X182.806 Y180.098 E.02232
G1 X182.118 Y180.282 E.02232
G1 X181.419 Y180.415 E.02232
G1 X180.711 Y180.494 E.02232
G1 X179.991 Y180.521 E.0226
G1 X111.015 Y180.521 E2.16271
G1 X110.576 Y180.495 E.01378
G1 X110.158 Y180.418 E.01332
G1 X109.752 Y180.292 E.01333
G1 X109.365 Y180.117 E.01332
G1 X109.001 Y179.898 E.01332
G1 X108.666 Y179.635 E.01333
G1 X108.366 Y179.335 E.01332
G1 X108.104 Y179 E.01332
G1 X107.884 Y178.637 E.01332
G1 X107.71 Y178.249 E.01332
G1 X107.583 Y177.844 E.01332
G1 X107.507 Y177.426 E.01332
G1 X107.48 Y176.987 E.01378
G1 X107.48 Y166.008 E.34423
G1 X107.504 Y165.171 E.02625
G1 X107.575 Y164.344 E.02603
G1 X107.693 Y163.522 E.02603
G1 X107.859 Y162.709 E.02603
G1 X108.07 Y161.906 E.02603
G1 X108.327 Y161.116 E.02603
G1 X109.235 Y158.84 E.07683
G1 X109.791 Y157.323 E.05068
G1 X110.295 Y155.795 E.05043
G1 X110.754 Y154.237 E.05092
G1 X111.157 Y152.68 E.05043
G1 X111.426 Y151.481 E.03851
G1 X114.199 Y151.481 E.08695
G1 X114.48 Y151.2 E.01247
G1 X114.48 Y148.481 E.08525
G1 X117.902 Y148.481 E.1073
G1 X117.902 Y149.322 E.02636
G1 X188.965 Y173.644 F9000
G1 F1200
G1 X188.965 Y151.821 E.68425
G1 X188.546 Y151.821 E.01314
G1 X188.546 Y174.354 E.70652
G1 X188.271 Y174.984 E.02154
G1 X188.127 Y175.257 E.00968
G1 X188.127 Y151.821 E.73482
G1 X187.708 Y151.821 E.01314
G1 X187.708 Y175.977 E.7574
G1 X187.289 Y176.574 E.02286
G1 X187.289 Y151.821 E.77611
G1 X186.87 Y151.821 E.01314
G1 X186.87 Y177.082 E.79205
G1 X186.451 Y177.524 E.01909
G1 X186.451 Y151.821 E.8059
G1 X186.032 Y151.821 E.01314
G1 X186.032 Y177.913 E.81811
G1 X185.613 Y178.26 E.01706
G1 X185.613 Y151.821 E.82899
G1 X185.194 Y151.821 E.01314
G1 X185.194 Y178.57 E.83869
G1 X184.775 Y178.835 E.01556
G1 X184.775 Y151.821 E.84702
G1 X184.356 Y151.821 E.01314
G1 X184.356 Y179.075 E.85454
G1 X183.937 Y179.292 E.0148
G1 X183.937 Y151.821 E.86135
G1 X183.518 Y151.821 E.01314
G1 X183.518 Y179.475 E.86708
G1 X183.099 Y179.636 E.01407
G1 X183.099 Y151.821 E.87213
G1 X182.68 Y151.821 E.01314
G1 X182.68 Y179.78 E.87666
G1 X182.261 Y179.893 E.0136
G1 X182.261 Y151.821 E.88018
G1 X181.842 Y151.821 E.01314
G1 X181.842 Y179.989 E.8832
G1 X181.423 Y180.069 E.01337
G1 X181.423 Y151.821 E.88569
G1 X181.004 Y151.821 E.01314
G1 X181.004 Y180.12 E.8873
G1 X180.585 Y180.16 E.0132
G1 X180.585 Y151.821 E.88854
G1 X180.166 Y151.821 E.01314
G1 X180.166 Y180.175 E.88903
G1 X179.747 Y180.182 E.01314
G1 X179.747 Y151.821 E.88925
G1 X179.328 Y151.821 E.01314
G1 X179.328 Y180.182 E.88925
G1 X178.909 Y180.182 E.01314
G1 X178.909 Y151.821 E.88925
G1 X178.49 Y151.821 E.01314
G1 X178.49 Y180.182 E.88925
G1 X178.071 Y180.182 E.01314
G1 X178.071 Y151.821 E.88925
G1 X177.652 Y151.821 E.01314
G1 X177.652 Y180.182 E.88925
G1 X177.234 Y180.182 E.01314
G1 X177.234 Y151.821 E.88925
G1 X176.815 Y151.821 E.01314
G1 X176.815 Y180.182 E.88925
G1 X176.396 Y180.182 E.01314
G1 X176.396 Y151.821 E.88925
G1 X175.977 Y151.821 E.01314
G1 X175.977 Y180.182 E.88925
G1 X175.558 Y180.182 E.01314
G1 X175.558 Y151.821 E.88925
G1 X175.139 Y151.821 E.01314
G1 X175.139 Y180.182 E.88925
G1 X174.72 Y180.182 E.01314
G1 X174.72 Y151.821 E.88925
G1 X174.301 Y151.821 E.01314
G1 X174.301 Y180.182 E.88925
G1 X173.882 Y180.182 E.01314
G1 X173.882 Y151.821 E.88925
G1 X173.463 Y151.821 E.01314
G1 X173.463 Y180.182 E.88925
G1 X173.044 Y180.182 E.01314
G1 X173.044 Y151.821 E.88925
G1 X172.625 Y151.821 E.01314
G1 X172.625 Y180.182 E.88925
G1 X172.206 Y180.182 E.01314
G1 X172.206 Y151.821 E.88925
G1 X171.787 Y151.821 E.01314
G1 X171.787 Y180.182 E.88925
G1 X171.368 Y180.182 E.01314
G1 X171.368 Y151.821 E.88925
G1 X170.949 Y151.821 E.01314
G1 X170.949 Y180.182 E.88925
G1 X170.53 Y180.182 E.01314
G1 X170.53 Y151.821 E.88925
G1 X170.111 Y151.821 E.01314
G1 X170.111 Y180.182 E.88925
G1 X169.692 Y180.182 E.01314
G1 X169.692 Y151.821 E.88925
G1 X169.273 Y151.821 E.01314
G1 X169.273 Y180.182 E.88925
G1 X168.854 Y180.182 E.01314
G1 X168.854 Y151.821 E.88925
G1 X168.435 Y151.821 E.01314
G1 X168.435 Y180.182 E.88925
G1 X168.016 Y180.182 E.01314
G1 X168.016 Y151.821 E.88925
G1 X167.597 Y151.821 E.01314
G1 X167.597 Y180.182 E.88925
G1 X167.178 Y180.182 E.01314
G1 X167.178 Y151.821 E.88925
G1 X166.759 Y151.821 E.01314
G1 X166.759 Y180.182 E.88925
G1 X166.34 Y180.182 E.01314
G1 X166.34 Y151.821 E.88925
G1 X165.921 Y151.821 E.01314
G1 X165.921 Y180.182 E.88925
G1 X165.502 Y180.182 E.01314
G1 X165.502 Y151.821 E.88925
G1 X165.083 Y151.821 E.01314
G1 X165.083 Y180.182 E.88925
G1 X164.664 Y180.182 E.01314
G1 X164.664 Y151.821 E.88925
G1 X164.245 Y151.821 E.01314
G1 X164.245 Y180.182 E.88925
G1 X163.826 Y180.182 E.01314
G1 X163.826 Y151.821 E.88925
G1 X163.407 Y151.821 E.01314
G1 X163.407 Y180.182 E.88925
G1 X162.988 Y180.182 E.01314
G1 X162.988 Y151.821 E.88925
G1 X162.569 Y151.821 E.01314
G1 X162.569 Y180.182 E.88925
G1 X162.15 Y180.182 E.01314
G1 X162.15 Y151.821 E.88925
G1 X161.731 Y151.821 E.01314
G1 X161.731 Y180.182 E.88925
G1 X161.312 Y180.182 E.01314
G1 X161.312 Y151.821 E.88925
G1 X160.893 Y151.821 E.01314
G1 X160.893 Y180.182 E.88925
G1 X160.474 Y180.182 E.01314
G1 X160.474 Y151.821 E.88925
G1 X160.055 Y151.821 E.01314
G1 X160.055 Y180.182 E.88925
G1 X159.636 Y180.182 E.01314
G1 X159.636 Y151.821 E.88925
G1 X159.217 Y151.821 E.01314
G1 X159.217 Y180.182 E.88925
G1 X158.799 Y180.182 E.01314
G1 X158.799 Y151.821 E.88925
G1 X158.38 Y151.821 E.01314
G1 X158.38 Y180.182 E.88925
G1 X157.961 Y180.182 E.01314
G1 X157.961 Y151.821 E.88925
G1 X157.542 Y151.821 E.01314
G1 X157.542 Y180.182 E.88925
G1 X157.123 Y180.182 E.01314
G1 X157.123 Y151.821 E.88925
G1 X156.704 Y151.821 E.01314
G1 X156.704 Y180.182 E.88925
G1 X156.285 Y180.182 E.01314
G1 X156.285 Y151.821 E.88925
G1 X155.866 Y151.821 E.01314
G1 X155.866 Y180.182 E.88925
G1 X155.447 Y180.182 E.01314
G1 X155.447 Y151.821 E.88925
G1 X155.028 Y151.821 E.01314
G1 X155.028 Y180.182 E.88925
G1 X154.609 Y180.182 E.01314
G1 X154.609 Y151.821 E.88925
G1 X154.19 Y151.821 E.01314
G1 X154.19 Y180.182 E.88925
G1 X153.771 Y180.182 E.01314
G1 X153.771 Y151.821 E.88925
G1 X153.352 Y151.821 E.01314
G1 X153.352 Y180.182 E.88925
G1 X152.933 Y180.182 E.01314
G1 X152.933 Y151.821 E.88925
G1 X152.514 Y151.821 E.01314
G1 X152.514 Y180.182 E.88925
G1 X152.095 Y180.182 E.01314
G1 X152.095 Y151.821 E.88925
G1 X151.676 Y151.821 E.01314
G1 X151.676 Y180.182 E.88925
G1 X151.257 Y180.182 E.01314
G1 X151.257 Y151.821 E.88925
G1 X150.838 Y151.821 E.01314
G1 X150.838 Y180.182 E.88925
G1 X150.419 Y180.182 E.01314
G1 X150.419 Y151.821 E.88925
G1 X150 Y151.821 E.01314
G1 X150 Y180.182 E.88925
G1 X149.581 Y180.182 E.01314
G1 X149.581 Y151.821 E.88925
G1 X149.162 Y151.821 E.01314
G1 X149.162 Y180.182 E.88925
G1 X148.743 Y180.182 E.01314
G1 X148.743 Y151.821 E.88925
G1 X148.324 Y151.821 E.01314
G1 X148.324 Y180.182 E.88925
G1 X147.905 Y180.182 E.01314
G1 X147.905 Y151.821 E.88925
G1 X147.486 Y151.821 E.01314
G1 X147.486 Y180.182 E.88925
G1 X147.067 Y180.182 E.01314
G1 X147.067 Y151.821 E.88925
G1 X146.648 Y151.821 E.01314
G1 X146.648 Y180.182 E.88925
G1 X146.229 Y180.182 E.01314
G1 X146.229 Y151.821 E.88925
G1 X145.81 Y151.821 E.01314
G1 X145.81 Y180.182 E.88925
G1 X145.391 Y180.182 E.01314
G1 X145.391 Y151.821 E.88925
G1 X144.972 Y151.821 E.01314
G1 X144.972 Y180.182 E.88925
G1 X144.553 Y180.182 E.01314
G1 X144.553 Y151.821 E.88925
G1 X144.134 Y151.821 E.01314
G1 X144.134 Y180.182 E.88925
G1 X143.715 Y180.182 E.01314
G1 X143.715 Y151.821 E.88925
G1 X143.296 Y151.821 E.01314
G1 X143.296 Y180.182 E.88925
G1 X142.877 Y180.182 E.01314
G1 X142.877 Y151.821 E.88925
G1 X142.458 Y151.821 E.01314
G1 X142.458 Y180.182 E.88925
G1 X142.039 Y180.182 E.01314
G1 X142.039 Y151.821 E.88925
G1 X141.62 Y151.821 E.01314
G1 X141.62 Y180.182 E.88925
G1 X141.201 Y180.182 E.01314
G1 X141.201 Y151.821 E.88925
G1 X140.783 Y151.821 E.01314
G1 X140.783 Y180.182 E.88925
G1 X140.364 Y180.182 E.01314
G1 X140.364 Y151.821 E.88925
G1 X139.945 Y151.821 E.01314
G1 X139.945 Y180.182 E.88925
G1 X139.526 Y180.182 E.01314
G1 X139.526 Y151.821 E.88925
G1 X139.107 Y151.821 E.01314
G1 X139.107 Y180.182 E.88925
G1 X138.688 Y180.182 E.01314
G1 X138.688 Y151.821 E.88925
G1 X138.269 Y151.821 E.01314
G1 X138.269 Y180.182 E.88925
G1 X137.85 Y180.182 E.01314
G1 X137.85 Y151.821 E.88925
G1 X137.431 Y151.821 E.01314
G1 X137.431 Y180.182 E.88925
G1 X137.012 Y180.182 E.01314
G1 X137.012 Y151.821 E.88925
G1 X136.593 Y151.821 E.01314
G1 X136.593 Y180.182 E.88925
G1 X136.174 Y180.182 E.01314
G1 X136.174 Y151.821 E.88925
G1 X135.755 Y151.821 E.01314
G1 X135.755 Y180.182 E.88925
G1 X135.336 Y180.182 E.01314
G1 X135.336 Y151.821 E.88925
G1 X134.917 Y151.821 E.01314
G1 X134.917 Y180.182 E.88925
G1 X134.498 Y180.182 E.01314
G1 X134.498 Y151.821 E.88925
G1 X134.079 Y151.821 E.01314
G1 X134.079 Y180.182 E.88925
G1 X133.66 Y180.182 E.01314
G1 X133.66 Y151.821 E.88925
G1 X133.241 Y151.821 E.01314
G1 X133.241 Y180.182 E.88925
G1 X132.822 Y180.182 E.01314
G1 X132.822 Y151.821 E.88925
G1 X132.403 Y151.821 E.01314
G1 X132.403 Y180.182 E.88925
G1 X131.984 Y180.182 E.01314
G1 X131.984 Y151.821 E.88925
G1 X131.565 Y151.821 E.01314
G1 X131.565 Y180.182 E.88925
G1 X131.146 Y180.182 E.01314
G1 X131.146 Y151.821 E.88925
G1 X130.727 Y151.821 E.01314
G1 X130.727 Y180.182 E.88925
G1 X130.308 Y180.182 E.01314
G1 X130.308 Y151.821 E.88925
G1 X129.889 Y151.821 E.01314
G1 X129.889 Y180.182 E.88925
G1 X129.47 Y180.182 E.01314
G1 X129.47 Y151.821 E.88925
G1 X129.051 Y151.821 E.01314
G1 X129.051 Y180.182 E.88925
G1 X128.632 Y180.182 E.01314
G1 X128.632 Y151.821 E.88925
G1 X128.213 Y151.821 E.01314
G1 X128.213 Y180.182 E.88925
G1 X127.794 Y180.182 E.01314
G1 X127.794 Y151.821 E.88925
G1 X127.375 Y151.821 E.01314
G1 X127.375 Y180.182 E.88925
G1 X126.956 Y180.182 E.01314
G1 X126.956 Y151.821 E.88925
G1 X126.537 Y151.821 E.01314
G1 X126.537 Y180.182 E.88925
G1 X126.118 Y180.182 E.01314
G1 X126.118 Y151.821 E.88925
G1 X125.699 Y151.821 E.01314
G1 X125.699 Y180.182 E.88925
G1 X125.28 Y180.182 E.01314
G1 X125.28 Y151.821 E.88925
G1 X124.861 Y151.821 E.01314
G1 X124.861 Y180.182 E.88925
G1 X124.442 Y180.182 E.01314
G1 X124.442 Y151.603 E.89609
G1 X124.181 Y151.341 E.01161
G1 X124.181 Y148.821 E.07901
G1 X124.023 Y148.821 E.00493
G1 X124.023 Y180.182 E.98331
G1 X123.604 Y180.182 E.01314
G1 X123.604 Y148.821 E.98331
G1 X123.185 Y148.821 E.01314
G1 X123.185 Y180.182 E.98331
G1 X122.766 Y180.182 E.01314
G1 X122.766 Y148.821 E.98331
G1 X122.348 Y148.821 E.01314
G1 X122.348 Y180.182 E.98331
G1 X121.929 Y180.182 E.01314
G1 X121.929 Y148.821 E.98331
G1 X121.673 Y148.821 E.00801
G1 X121.673 Y149.718 E.02813
G1 X121.51 Y149.718 E.00513
G1 X121.51 Y180.182 E.95518
G1 X121.091 Y180.182 E.01314
G1 X121.091 Y149.718 E.95518
G1 X120.672 Y149.718 E.01314
G1 X120.672 Y180.182 E.95518
G1 X120.253 Y180.182 E.01314
G1 X120.253 Y149.718 E.95518
G1 X119.834 Y149.718 E.01314
G1 X119.834 Y180.182 E.95518
G1 X119.415 Y180.182 E.01314
G1 X119.415 Y149.718 E.95518
G1 X118.996 Y149.718 E.01314
G1 X118.996 Y180.182 E.95518
G1 X118.577 Y180.182 E.01314
G1 X118.577 Y149.718 E.95518
G1 X118.158 Y149.718 E.01314
G1 X118.158 Y180.182 E.95518
G1 X117.739 Y180.182 E.01314
G1 X117.739 Y149.718 E.95518
G1 X117.563 Y149.718 E.00551
G1 X117.563 Y148.821 E.02813
G1 X117.32 Y148.821 E.00762
G1 X117.32 Y180.182 E.98331
G1 X116.901 Y180.182 E.01314
G1 X116.901 Y148.821 E.98331
G1 X116.482 Y148.821 E.01314
G1 X116.482 Y180.182 E.98331
G1 X116.063 Y180.182 E.01314
G1 X116.063 Y148.821 E.98331
G1 X115.644 Y148.821 E.01314
G1 X115.644 Y180.182 E.98331
G1 X115.225 Y180.182 E.01314
G1 X115.225 Y148.821 E.98331
G1 X114.819 Y148.821 E.01272
G1 X114.806 Y180.182 E.98331
G1 X114.387 Y180.182 E.01314
G1 X114.387 Y151.773 E.89074
G1 X114.339 Y151.821 E.00211
G1 X113.968 Y151.821 E.01165
G1 X113.968 Y180.182 E.88925
G1 X113.549 Y180.182 E.01314
G1 X113.549 Y151.821 E.88925
G1 X113.13 Y151.821 E.01314
G1 X113.13 Y180.182 E.88925
G1 X112.711 Y180.182 E.01314
G1 X112.711 Y151.821 E.88925
G1 X112.292 Y151.821 E.01314
G1 X112.292 Y180.182 E.88925
G1 X111.873 Y180.182 E.01314
G1 X111.873 Y151.821 E.88925
G1 X111.697 Y151.821 E.00551
G1 X111.454 Y152.885 E.03423
G1 X111.454 Y180.182 E.85588
G1 X111.035 Y180.182 E.01314
G1 X111.035 Y154.483 E.80579
G1 X110.616 Y155.906 E.04651
G1 X110.616 Y180.157 E.76039
G1 X110.197 Y180.075 E.01339
G1 X110.197 Y157.175 E.718
G1 X109.778 Y158.345 E.03894
G1 X109.778 Y179.931 E.67684
G1 X109.523 Y179.816 E.00879
G1 X109.359 Y179.718 E.00598
G1 X109.359 Y159.439 E.63582
G1 X108.94 Y160.477 E.03508
G1 X108.94 Y179.419 E.59392
